svgs/thin/cart-flatbed.svg

<svg xmlns="http://www.w3.org/2000/svg" viewBox="0 0 640 512"><!--! Font Awesome Pro 6.3.0 by @fontawesome - https://fontawesome.com License - https://fontawesome.com/license (Commercial License) Copyright 2023 Fonticons, Inc. --><path d="M632 416H128V72C128 29.59 101.7 0 64 0H8C3.594 0 0 3.594 0 8S3.594 16 8 16H64c33.16 0 48 28.12 48 56v352c0 4.406 3.594 8 8 8h52.46C164.8 440.5 160 451.7 160 464C160 490.5 181.5 512 208 512S256 490.5 256 464C256 451.7 251.2 440.5 243.5 432h216.9c-7.664 8.506-12.43 19.65-12.43 32C448 490.5 469.5 512 496 512c26.51 0 48.01-21.49 48.01-47.1c0-12.35-4.828-23.49-12.49-32H632c4.406 0 8-3.595 8-8.002S636.4 416 632 416zM208 496c-17.64 0-32-14.36-32-32s14.36-32 32-32s32 14.36 32 32S225.6 496 208 496zM496 496c-17.64 0-32-14.36-32-32s14.36-32 32-32s32 14.36 32 32S513.6 496 496 496zM224 352h352c17.67 0 32-14.33 32-32V96C608 78.33 593.7 64 576 64H224C206.3 64 192 78.33 192 96V320C192 337.7 206.3 352 224 352zM352 80h96v98.22l-44.03-25.16c-2.438-1.438-5.5-1.438-7.938 0L352 178.2V80zM208 96c0-8.822 7.178-16 16-16l112 .0016v111.1c0 2.844 1.531 5.499 4 6.905c2.438 1.438 5.531 1.469 7.969 .0313L400 169.2l52.03 29.72C453.3 199.7 454.6 200 456 200s2.781-.375 4-1.094C462.5 197.5 464 194.8 464 192V80L576 80c8.822 0 16 7.178 16 16v224c0 8.822-7.178 16-16 16H224c-8.822 0-16-7.178-16-16V96z"/></svg>

<svg xmlns="http://www.w3.org/2000/svg" viewBox="0 0 640 512"><!-- Font Awesome Pro 6.0.0-alpha2 by @fontawesome - https://fontawesome.com License - https://fontawesome.com/license (Commercial License) --><path d="M632 416H128V72C128 29.594 101.688 0 64 0H8C3.594 0 0 3.594 0 8S3.594 16 8 16H64C97.156 16 112 44.125 112 72V424C112 428.406 115.594 432 120 432H172.461C164.797 440.506 160 451.65 160 464C160 490.51 181.492 512 208 512S256 490.51 256 464C256 451.65 251.203 440.506 243.543 432H460.461C452.797 440.506 448 451.65 448 464C448 490.51 469.492 512 496 512S544 490.51 544 464C544 451.65 539.203 440.506 531.543 432H632C636.406 432 640 428.406 640 424S636.406 416 632 416ZM208 496C190.355 496 176 481.645 176 464S190.355 432 208 432S240 446.355 240 464S225.645 496 208 496ZM496 496C478.355 496 464 481.645 464 464S478.355 432 496 432S528 446.355 528 464S513.645 496 496 496ZM224 352H576C593.674 352 608 337.674 608 320V96C608 78.326 593.674 64 576 64H224C206.326 64 192 78.326 192 96V320C192 337.674 206.326 352 224 352ZM352 80H448V178.219L403.969 153.062C401.531 151.625 398.469 151.625 396.031 153.062L352 178.219V80ZM208 96C208 87.178 215.178 80 224 80H336V192C336 194.844 337.531 197.5 340 198.906C342.438 200.344 345.531 200.375 347.969 198.938L400 169.219L452.031 198.937C453.25 199.656 454.625 200 456 200S458.781 199.625 460 198.906C462.469 197.5 464 194.844 464 192V80H576C584.822 80 592 87.178 592 96V320C592 328.822 584.822 336 576 336H224C215.178 336 208 328.822 208 320V96Z"/></svg>
